X: 41344
T: Turning Tides
R: waltz
M: 3/4
K: Gmajor
B,A,|:G,A, B,D GA|B2 A2 GD|~E2 DB, D2|((3EGE) DB, D2|
G,A, B,D GA|B2 d2 B2|~A2 cA FD|~A2 cA FD|
G,A, B,D GA|B2 A2 G(D|E)G cd ef|gb ag fe|
d3 e dc|B2 A2 B2|cA FD BA||1 GE DC B,A,:|2 G3 (A (3Bcd)||
ga ba gd|fg ag fd|ef gf ed|c3 e dc|
B3 d ga|b2 c'2 b2|~a2 c'a fd|(3aba c'a fd|
~d'2 ~c'2 ~b2|~a2 ~g2 f2|ed ea ge|de ga b2|
c'b c'e' d'c'|b2 a2 b2|c'a fd ba||1 g3 (A (3Bcd):|2 g2g2||

